src/songkick/songkick-black.svg

<svg xmlns="http://www.w3.org/2000/svg" width="128" height="128"><path d="M93.371 32.839c-5.432-4.067-11.464-6.797-19.072-8.05v36.251l10.868-15.132h11.886l-13.688 19.071s3.148 5.029 5.028 8.016c1.926 3.007 3.767 3.826 6.556 3.826l1.89.004v9.38l-2.904.007c-6.027 0-9.658-1.098-12.381-5.262-1.691-2.694-7.254-11.431-7.254-11.431v16.649h-9.932v-62.162l-.368-.006c-12.84 0-21.695 3.093-29.366 8.839-11.07 8.284-10.628 19.333-10.628 31.151 0 11.825-.442 22.888 10.628 31.173 7.671 5.746 16.526 8.837 29.366 8.837 12.838 0 21.696-3.091 29.371-8.837 11.067-8.286 10.623-19.348 10.623-31.173 0-11.818.444-22.867-10.623-31.151zm-47.538 53.765c-6.187 0-11.238-1.136-15.323-5.344l6.359-6.358c2.098 2.1 5.787 2.838 9.02 2.838 3.917 0 5.788-1.304 5.788-3.631 0-.966-.224-1.763-.793-2.39-.51-.51-1.362-.909-2.667-1.079l-4.881-.679c-3.576-.511-6.299-1.704-8.115-3.576-1.875-1.929-2.781-4.653-2.781-8.114 0-7.378 5.56-12.772 14.755-12.772 5.789 0 10.16 1.363 13.62 4.825l-6.243 6.242c-2.553-2.555-5.902-2.384-7.661-2.384-3.462 0-4.88 1.988-4.88 3.746 0 .512.17 1.248.796 1.873.51.512 1.359 1.022 2.78 1.193l4.878.681c3.634.51 6.244 1.644 7.948 3.348 2.156 2.1 3.004 5.106 3.004 8.858 0 8.229-7.09 12.723-15.604 12.723z"/></svg>

<?xml version="1.0" encoding="UTF-8" standalone="no"?>
<!-- Created with Inkscape (http://www.inkscape.org/) -->

<svg
   xmlns:dc="http://purl.org/dc/elements/1.1/"
   xmlns:cc="http://creativecommons.org/ns#"
   xmlns:rdf="http://www.w3.org/1999/02/22-rdf-syntax-ns#"
   xmlns:svg="http://www.w3.org/2000/svg"
   xmlns="http://www.w3.org/2000/svg"
   xmlns:inkscape="http://www.inkscape.org/namespaces/inkscape"
   version="1.1"
   width="128"
   height="128"
   id="svg2">
  <metadata
     id="metadata10">
    <rdf:RDF>
      <cc:Work
         rdf:about="">
        <dc:format>image/svg+xml</dc:format>
        <dc:type
           rdf:resource="http://purl.org/dc/dcmitype/StillImage" />
      </cc:Work>
    </rdf:RDF>
  </metadata>
  <defs
     id="defs8" />
  <path
     d="M 93.371,32.839 C 87.939,28.772 81.907,26.042 74.299,24.789 V 61.04 L 85.167,45.908 H 97.053 L 83.365,64.979 c 0,0 3.148,5.029 5.028,8.016 1.926,3.007 3.767,3.826 6.556,3.826 l 1.89,0.004 v 9.38 l -2.904,0.007 c -6.027,0 -9.658,-1.098 -12.381,-5.262 C 79.863,78.256 74.3,69.519 74.3,69.519 V 86.168 H 64.368 V 24.006 L 64,24 c -12.84,0 -21.695,3.093 -29.366,8.839 -11.07,8.284 -10.628,19.333 -10.628,31.151 0,11.825 -0.442,22.888 10.628,31.173 C 42.305,100.909 51.16,104 64,104 c 12.838,0 21.696,-3.091 29.371,-8.837 11.067,-8.286 10.623,-19.348 10.623,-31.173 0,-11.818 0.444,-22.867 -10.623,-31.151 z M 45.833,86.604 c -6.187,0 -11.238,-1.136 -15.323,-5.344 l 6.359,-6.358 c 2.098,2.1 5.787,2.838 9.02,2.838 3.917,0 5.788,-1.304 5.788,-3.631 0,-0.966 -0.224,-1.763 -0.793,-2.39 -0.51,-0.51 -1.362,-0.909 -2.667,-1.079 L 43.336,69.961 C 39.76,69.45 37.037,68.257 35.221,66.385 33.346,64.456 32.44,61.732 32.44,58.271 c 0,-7.378 5.56,-12.772 14.755,-12.772 5.789,0 10.16,1.363 13.62,4.825 l -6.243,6.242 c -2.553,-2.555 -5.902,-2.384 -7.661,-2.384 -3.462,0 -4.88,1.988 -4.88,3.746 0,0.512 0.17,1.248 0.796,1.873 0.51,0.512 1.359,1.022 2.78,1.193 l 4.878,0.681 c 3.634,0.51 6.244,1.644 7.948,3.348 2.156,2.1 3.004,5.106 3.004,8.858 0,8.229 -7.09,12.723 -15.604,12.723 z"
     inkscape:connector-curvature="0"
     id="path4" />
</svg>
